!! 00000] TT[WS
!!!OTL: Pingding xiaodiao
!!!ARE: Asia, China, Shanxi Pingding
!! Ethnic Group: Han
!! WII, 115 (1)
!!!SCT: J0575
!!!YEM: Copyright 1995, estate of Helmut Schaffrath.
**kern
*ICvox
*Ivox
*M2/4
*k[f#]
*G:
{8dd
8dd
8gg
16ee
16dd
=1
8dd
4.a
=2
8gg
8dd
8cc
16b
16a
=3
2g}
=4
{8.g
16a
4dd
=5
16b
16dd
16b
16a
8g
8dd
=6
8.f#
16e
8d
8g
=7
16e
16g
16e
16d
16c
16d
8e
=8
2d}
==
!!!AGN: Xiaodiao. Qingge, Sichun
!!!ONB: ESAC (Essen Associative Code) Database: CHINA
!!!AMT: simple duple
!!!AIN: vox
!!!EED: Helmut Schaffrath
!!!EEV: 1.0
*-
